!!!!SEGMENT: Lps2021-Verbum_bonum
!!!id: Lps2021
!!!AGN: Motet
!!!voices: 8
!!!COM: Lupus Hellinck
!!!OTL: Verbum bonum
**kern	**kern	**kern	**kern	**kern	**kern	**kern	**kern
*part8	*part7	*part6	*part5	*part4	*part3	*part2	*part1
*staff8	*staff7	*staff6	*staff5	*staff4	*staff3	*staff2	*staff1
*I"Bassus II	*I"Bassus I	*I"Tenor II	*I"Tenor I	*I"Altus II	*I"Altus I	*I"Superius II	*I"Superius I
*I'B. II	*I'B. I	*I'T. II	*I'T. I	*I'A. II	*I'A. I	*I'S. II	*I'S. I
*clefF4	*clefF4	*clefGv2	*clefGv2	*clefGv2	*clefGv2	*clefG2	*clefG2
*k[]	*k[]	*k[]	*k[]	*k[]	*k[]	*k[]	*k[]
*M2/1	*M2/1	*M2/1	*M2/1	*M2/1	*M2/1	*M2/1	*M2/1
*met(C|)	*met(C|)	*met(C|)	*met(C|)	*met(C|)	*met(C|)	*met(C|)	*met(C|)
=1	=1	=1	=1	=1	=1	=1	=1
!!section: Prima pars: Verbum bonum
!!!OMD: Prima pars: Verbum bonum
0r	0r	0r	0r	0r	0r	1d	0r
.	.	.	.	.	.	1g	.
=2	=2	=2	=2	=2	=2	=2	=2
0r	0r	1D	0r	0r	0r	1a	0r
.	.	1G	.	.	.	1g	.
=3	=3	=3	=3	=3	=3	=3	=3
0r	0r	1A	0r	1A	0r	1cc	1r
.	.	2G	.	1d	.	2b	1d
.	.	2F	.	.	.	[2a	.
=4	=4	=4	=4	=4	=4	=4	=4
0r	0r	2E	1r	1e	0r	4a]	1g
.	.	.	.	.	.	4g	.
.	.	2C	.	.	.	1g	.
.	.	1F	1D	1d	.	.	1a
.	.	.	.	.	.	2f#i	.
=5	=5	=5	=5	=5	=5	=5	=5
0r	0r	1E	1G	2r	1r	1g	1g
.	.	.	.	2g	.	.	.
.	.	2r	1A	2f	1A	1r	1cc
.	.	2A	.	[2e	.	.	.
=6	=6	=6	=6	=6	=6	=6	=6
1r	0r	2B	1G	4e]	1d	0r	2b
.	.	.	.	4d	.	.	.
.	.	2B	.	1d	.	.	2g
1AA	.	1A	2r	.	1e	.	2a
.	.	.	2A	2c#i	.	.	2cc
=7	=7	=7	=7	=7	=7	=7	=7
1D	1D	2r	4B	1d	1d	0r	2b
.	.	.	4A	.	.	.	.
.	.	2F	1d	.	.	.	2.a
1E	1G	2G	.	1r	1r	.	.
.	.	.	.	.	.	.	4g
.	.	2C	2c	.	.	.	[2g
=8	=8	=8	=8	=8	=8	=8	=8
1D	1A	2.F	1d	2r	1r	0r	2g]
.	.	.	.	2d	.	.	2f#i
.	.	4E	.	.	.	.	.
1r	1G	[1C	2r	1e	2r	.	1g
.	.	.	2G	.	2g	.	.
=9	=9	=9	=9	=9	=9	=9	=9
1AA	2r	1C]	1A	1c	2f	0r	0r
.	2c	.	.	.	2.e	.	.
1D	2B	2r	1F	1d	.	.	.
.	.	.	.	.	4d	.	.
.	[2A	2D	.	.	[2d	.	.
=10	=10	=10	=10	=10	=10	=10	=10
1E	4A]	1G	1G	1r	2d]	1r	0r
.	4G	.	.	.	.	.	.
.	1G	.	.	.	2c#i	.	.
1D	.	1A	1r	2r	[1d	1a	.
.	2F#i	.	.	2A	.	.	.
=11	=11	=11	=11	=11	=11	=11	=11
2r	1G	1G	1r	2d	1d]	1b-X	0r
1G	.	.	.	2G	.	.	.
.	1r	2r	2r	2.c	1r	1a	.
2F	.	[2c	2A	.	.	.	.
.	.	.	.	4B	.	.	.
=12	=12	=12	=12	=12	=12	=12	=12
1E	1C	2c]	2c	1G	1e	1g	0r
.	.	2G	2c	.	.	.	.
1D	2F	1A	2d	1r	1f	1r	.
.	2F	.	2A	.	.	.	.
=13	=13	=13	=13	=13	=13	=13	=13
2r	2C	1G	2c	1r	1e	2r	0r
2C	2C	.	2c	.	.	2e	.
2F	2D	1r	1F	2r	1d	1f	.
2F	2D	.	.	2A	.	.	.
=14	=14	=14	=14	=14	=14	=14	=14
2C	1AA	0r	2r	2c	2r	1e	0r
2C	.	.	2c	2c	2e	.	.
2D	2r	.	2f	2.F	1f	2d	.
2D	2D	.	2f	.	.	[2a	.
.	.	.	.	4G	.	.	.
=15	=15	=15	=15	=15	=15	=15	=15
1AA	2E	1A	2c	1A	1e	4a]	0r
.	.	.	.	.	.	4b	.
.	2C	.	2c	.	.	2cc	.
2r	1G	1B-X	2d	2r	[1d	2b-X	.
2GG	.	.	2d	[2d	.	[2g	.
=16	=16	=16	=16	=16	=16	=16	=16
2D	2r	1A	1A	4d]	1d]	2g]	1a
.	.	.	.	4e	.	.	.
2D	2F	.	.	2f	.	2f#i	.
1GG	2B-X	1G	1r	1d	2r	1g	1b-X
.	2B-i	.	.	.	[2d	.	.
=17	=17	=17	=17	=17	=17	=17	=17
1r	2F	1r	1A	0r	4d]	0r	1a
.	.	.	.	.	4e	.	.
.	2F	.	.	.	2f	.	.
2r	2G	2r	1B-i	.	2d	.	1g
2C	2G	2E	.	.	2g	.	.
=18	=18	=18	=18	=18	=18	=18	=18
2F	1D	1F	1A	2r	4f	0r	1r
.	.	.	.	.	4g	.	.
2F	.	.	.	2A	4a	.	.
.	.	.	.	.	4f	.	.
2C	2r	1E	1G	2c	1g	.	2r
2C	2C	.	.	2c	.	.	2e
=19	=19	=19	=19	=19	=19	=19	=19
2D	2F	1D	1r	2.F	2f	0r	1f
2D	2F	.	.	.	2A	.	.
.	.	.	.	4G	.	.	.
1AA	2C	1r	2r	1A	2c	.	1e
.	2C	.	2E	.	2c	.	.
=20	=20	=20	=20	=20	=20	=20	=20
0r	2D	2r	1F	2r	2.F	0r	1d
.	2D	2d	.	2A	.	.	.
.	.	.	.	.	4G	.	.
.	1AA	1e	1E	2c	1A	.	1r
.	.	.	.	2c	.	.	.
=21	=21	=21	=21	=21	=21	=21	=21
2r	0r	1f	[0D	1F	1r	0dd	2r
2D	.	.	.	.	.	.	2a
2GG	.	1d	.	2r	2r	.	2b-X
2D	.	.	.	[2f	2A	.	[2a
=22	=22	=22	=22	=22	=22	=22	=22
2BB-X	0r	2r	0D]	4f]	1B	1dd	4a]
.	.	.	.	4e	.	.	4g
2GG	.	2D	.	2.d	.	.	1g
2D	.	1F	.	.	1A	1a	.
.	.	.	.	4c	.	.	.
2D	.	.	.	2A	.	.	2f#i
=23	=23	=23	=23	=23	=23	=23	=23
1GG	2r	2D	0d	2B	4G	2.dd	1g
.	.	.	.	.	4A	.	.
.	2D	2d	.	1G	4B	.	.
.	.	.	.	.	4c	4cc	.
1r	2GG	2d	.	.	4d	2b	1r
.	.	.	.	.	4e	.	.
.	2D	2A	.	2F#i	2f	2a	.
=24	=24	=24	=24	=24	=24	=24	=24
0r	2BB	2B	1d	1G	2d	2g	0r
.	2GG	2.d	.	.	1g	2dd	.
.	2D	.	1A	2r	.	2dd	.
.	.	4e	.	.	.	.	.
.	2D	2f	.	2d	2f#i	2a	.
=25	=25	=25	=25	=25	=25	=25	=25
2r	1GG	1d	1.d	2B	1g	2.b	0r
2G	.	.	.	2G	.	.	.
.	.	.	.	.	.	4cc	.
2G	1r	2r	.	2B	2r	2dd	.
2C	.	[2G	2c	2c	2g	2ee	.
=26	=26	=26	=26	=26	=26	=26	=26
1G	1r	4G]	1d	1G	2g	1dd	0g
.	.	4A	.	.	.	.	.
.	.	2B	.	.	2d	.	.
1r	2r	1G	2e	1r	1g	2.b	.
.	2G	.	[2d	.	.	.	.
.	.	.	.	.	.	4cc	.
=27	=27	=27	=27	=27	=27	=27	=27
1r	2G	2r	4d]	2r	1r	2dd	1g
.	.	.	4c	.	.	.	.
.	2C	2.G	1c	2g	.	2ee	.
2r	1G	.	.	2g	2r	1dd	1d
.	.	4A	.	.	.	.	.
2G	.	2B	2B	2d	[2g	.	.
=28	=28	=28	=28	=28	=28	=28	=28
2E	0r	2G	1c	2.e	4g]	0r	1.g
.	.	.	.	.	4f	.	.
2C	.	2c	.	.	2.e	.	.
.	.	.	.	4f	.	.	.
2G	.	2B	2r	2g	.	.	.
.	.	.	.	.	4d	.	.
2D	.	2A	2d	[2a	[2d	.	2f
=29	=29	=29	=29	=29	=29	=29	=29
1E	1r	2G	2B	2a]	2d]	0r	1g
.	.	2C	2G	1g	2c#i	.	.
1D	2r	1F	2d	.	1d	.	1a
.	2D	.	2A	2f#i	.	.	.
=30	=30	=30	=30	=30	=30	=30	=30
1GG	2BB	2D	1B-i	2g	1d	2r	1g
.	2GG	1d	.	2G	.	2g	.
1r	2D	.	2.A	2A	1r	2f	1r
.	2AA	2c#i	.	2c	.	[2e	.
.	.	.	4G	.	.	.	.
=31	=31	=31	=31	=31	=31	=31	=31
0r	1BB-X	1d	2F	2B-X	0r	4e]	0r
.	.	.	.	.	.	4d	.
.	.	.	2G	2G	.	1d	.
.	1AA	2r	1E	[1A	.	.	.
.	.	2e	.	.	.	2c#i	.
=32	=32	=32	=32	=32	=32	=32	=32
2r	0D	1f	2D	1A]	1r	0d	1a
2D	.	.	2F	.	.	.	.
2GG	.	2d	2G	1r	2r	.	1b-X
2GG	.	[2g	2G	.	2G	.	.
=33	=33	=33	=33	=33	=33	=33	=33
1D	0r	2g]	1D	0r	2.A	0r	1a
.	.	2f	.	.	.	.	.
.	.	.	.	.	4B	.	.
1r	.	2e	2r	.	2c	.	2g
.	.	2d	2D	.	2F	.	[2a
=34	=34	=34	=34	=34	=34	=34	=34
2r	1r	2c	2F	1r	2f	0r	4a]
.	.	.	.	.	.	.	4g
2E	.	2B	2G	.	2e	.	1g
1F	2r	1A	1D	2r	1d	.	.
.	2D	.	.	2A	.	.	2f#i
=35	=35	=35	=35	=35	=35	=35	=35
2D	2GG	1G	0r	1B-X	1d	0r	1g
1G	2GG	.	.	.	.	.	.
.	1D	1r	.	1A	1r	.	1r
2F	.	.	.	.	.	.	.
=36	=36	=36	=36	=36	=36	=36	=36
2E	0r	0r	0r	2G	0r	0r	0r
2D	.	.	.	2.A	.	.	.
2C	.	.	.	.	.	.	.
.	.	.	.	4G	.	.	.
2BB	.	.	.	[2G	.	.	.
=37	=37	=37	=37	=37	=37	=37	=37
1AA	1r	1r	1r	2G]	2r	0r	0r
.	.	.	.	2F#i	2A	.	.
1GG	2r	[1d	2r	1G	1B-X	.	.
.	2GG	.	[2D	.	.	.	.
=38	=38	=38	=38	=38	=38	=38	=38
1r	2D	1d]	4D]	0r	1A	2r	0r
.	.	.	4E	.	.	.	.
.	2D	.	2F	.	.	2a	.
2r	1GG	[1d	2G	.	2G	1b-X	.
2GG	.	.	[2D	.	[2g	.	.
=39	=39	=39	=39	=39	=39	=39	=39
2D	0r	1d]	4D]	2r	2g]	1a	0r
.	.	.	4E	.	.	.	.
2D	.	.	2F	2A	2f	.	.
2GG	.	1r	2G	2B	2e	2g	.
2D	.	.	2F	2A	[2d	[2a	.
=40	=40	=40	=40	=40	=40	=40	=40
2F	2r	2r	2A	1D	4d]	4a]	0r
.	.	.	.	.	4c	4g	.
2G	2GG	2.d	2D	.	2B	1g	.
1D	2D	.	1F	1r	1A	.	.
.	.	4c	.	.	.	.	.
.	2D	2A	.	.	.	2f#i	.
=41	=41	=41	=41	=41	=41	=41	=41
2r	1GG	1B	1D	2r	0G	0g	1d
2G	.	.	.	2d	.	.	.
2C	1r	2c	1r	2e	.	.	1g
2E	.	2G	.	[2g	.	.	.
=42	=42	=42	=42	=42	=42	=42	=42
1D	2r	3.d	2r	2g]	0r	0r	1a
.	2D	6e	2d	2f#i	.	.	.
.	.	3f	.	.	.	.	.
1r	2E	2e	2G	2g	.	.	1g
.	[2G	2d	2B	2d	.	.	.
=43	=43	=43	=43	=43	=43	=43	=43
0r	2G]	1c	1A	2e	2r	1r	1cc
.	2F#i	.	.	2f	2A	.	.
.	2G	1r	1r	2d	2B	1d	2b
.	2D	.	.	2f	[2d	.	[2a
=44	=44	=44	=44	=44	=44	=44	=44
0r	1E	2r	1r	1e	2d]	1g	4a]
.	.	.	.	.	.	.	4g
.	.	2C	.	.	2c	.	1g
.	1D	1F	2r	2r	2.d	1a	.
.	.	.	2A	2A	.	.	2f#i
.	.	.	.	.	4c	.	.
=45	=45	=45	=45	=45	=45	=45	=45
1r	1GG	1D	2B	1d	1B	1g	1g
.	.	.	1d	.	.	.	.
1AA	1r	2r	.	1e	1A	1cc	1r
.	.	2A	2c#i	.	.	.	.
=46	=46	=46	=46	=46	=46	=46	=46
1D	0r	2B	2d	1d	0r	2b	0r
.	.	1d	2D	.	.	2.a	.
1E	.	.	1G	1r	.	.	.
.	.	.	.	.	.	4g	.
.	.	2c	.	.	.	[2g	.
=47	=47	=47	=47	=47	=47	=47	=47
1D	2r	1d	1A	1r	0r	2g]	0r
.	2D	.	.	.	.	2f#i	.
1r	2E	1r	1G	2r	.	1g	.
.	2C	.	.	2g	.	.	.
=48	=48	=48	=48	=48	=48	=48	=48
2r	2D	0r	0r	2f	0r	0r	0r
1G	2E	.	.	2.e	.	.	.
.	2C	.	.	.	.	.	.
.	.	.	.	4d	.	.	.
2F	2D	.	.	[2d	.	.	.
=49	=49	=49	=49	=49	=49	=49	=49
1E	2AA	2r	2r	2d]	1r	0r	0r
.	2C	1G	2c	2c#i	.	.	.
1D	2GG	.	2B	1d	2r	.	.
.	2D	2F	[2A	.	[2d	.	.
=50	=50	=50	=50	=50	=50	=50	=50
0r	2AA	1E	4A]	1r	2d]	2r	0r
.	.	.	4G	.	.	.	.
.	2C	.	1G	.	2c	2cc	.
.	2GG	1D	.	2r	2.d	2b	.
.	2D	.	2F#i	[2d	.	[2a	.
.	.	.	.	.	4c	.	.
=51	=51	=51	=51	=51	=51	=51	=51
1r	1E	0r	1G	2d]	2B	4a]	1r
.	.	.	.	.	.	4g	.
.	.	.	.	2c	2G	1g	.
2r	1D	.	1r	2.d	1A	.	1a
2D	.	.	.	.	.	2f#i	.
.	.	.	.	4c	.	.	.
=52	=52	=52	=52	=52	=52	=52	=52
2GG	1r	1r	0r	2B-X	2G	1g	1b-X
1G	.	.	.	2G	2d	.	.
.	2r	2r	.	1A	2e	1r	1a
2F#i	2D	2A	.	.	2f	.	.
=53	=53	=53	=53	=53	=53	=53	=53
1G	2GG	1B-X	2r	2r	1d	1r	1g
.	1G	.	2G	2d	.	.	.
1r	.	1A	2C	2e	1r	1a	1r
.	2F#i	.	[2c	2f	.	.	.
=54	=54	=54	=54	=54	=54	=54	=54
1r	1G	1G	2c]	1d	2r	1b-X	0r
.	.	.	2B	.	1g	.	.
2r	1r	1r	2c	1r	.	1a	.
2D	.	.	2d	.	2f#i	.	.
=55	=55	=55	=55	=55	=55	=55	=55
2E	1.C	0r	1G	2r	2.g	1g	0e
2C	.	.	.	2c	.	.	.
.	.	.	.	.	4f	.	.
1G	.	.	1r	2c	1e	1r	.
.	2C	.	.	2c	.	.	.
=56	=56	=56	=56	=56	=56	=56	=56
2r	1D	0r	0A	2.F	1d	0r	1f
2D	.	.	.	.	.	.	.
.	.	.	.	4G	.	.	.
2E	1AA	.	.	4A	1r	.	1e
.	.	.	.	4B	.	.	.
2C	.	.	.	2c	.	.	.
=57	=57	=57	=57	=57	=57	=57	=57
1G	1r	0r	1B-X	2G	2r	0r	0d
.	.	.	.	1g	2.d	.	.
1r	1D	.	1A	.	.	.	.
.	.	.	.	.	4c	.	.
.	.	.	.	2f#i	4A	.	.
.	.	.	.	.	4B	.	.
=58	=58	=58	=58	=58	=58	=58	=58
1.C	2E	0E	0G	0g	1c	2r	0r
.	2C	.	.	.	.	2.e	.
.	1G	.	.	.	2G	.	.
.	.	.	.	.	.	4d	.
2C	.	.	.	.	[2c	4c	.
.	.	.	.	.	.	4B	.
=59	=59	=59	=59	=59	=59	=59	=59
1D	0r	1F	0r	0r	4c]	2A	0r
.	.	.	.	.	4B	.	.
.	.	.	.	.	1A	1d	.
1AA	.	1E	.	.	.	.	.
.	.	.	.	.	2A	2c#i	.
=60	=60	=60	=60	=60	=60	=60	=60
1r	1.F	[0D	2r	0A	2F	1d	2r
.	.	.	2d	.	2.f	.	2.a
2r	.	.	2d	.	.	1r	.
.	.	.	.	.	4e	.	4g
2D	2F	.	2A	.	[2d	.	4f
.	.	.	.	.	.	.	4e
=61	=61	=61	=61	=61	=61	=61	=61
2BB-X	1G	0D]	2d	1B-X	2d]	2r	2d
2GG	.	.	2D	.	2d	2dd	1g
1D	1D	.	2F	1A	1d	2dd	.
.	.	.	2F	.	.	2a	2f#i
=62	=62	=62	=62	=62	=62	=62	=62
1GG	2r	0r	1D	2G	2r	1.dd	1g
.	2G	.	.	2.g	2d	.	.
1r	2B	.	2G	.	2d	.	1r
.	.	.	.	4f	.	.	.
.	2c	.	2A	2e	2A	2cc	.
=63	=63	=63	=63	=63	=63	=63	=63
2r	1G	2r	1B	1d	1.d	1.dd	[0g
2G	.	2G	.	.	.	.	.
2B	1r	2G	1G	1r	.	.	.
2c	.	2C	.	.	2c	[2ee	.
=64	=64	=64	=64	=64	=64	=64	=64
1G	2r	1G	2r	0r	1.d	4ee]	0g_
.	.	.	.	.	.	4dd	.
.	2G	.	2G	.	.	1dd	.
1r	2B	1r	2G	.	.	.	.
.	2c	.	2C	.	[2e	2cc	.
=65	=65	=65	=65	=65	=65	=65	=65
2r	1G	2r	1G	2r	4e]	1dd	0g]
.	.	.	.	.	4d	.	.
2G	.	2G	.	2B	1d	.	.
2B	1r	2G	1r	2d	.	1r	.
2c	.	2C	.	2e	2c	.	.
=66	=66	=66	=66	=66	=66	=66	=66
1G	0r	1G	2r	2d	2d	1dd	1g
.	.	.	2G	1g	2.B	.	.
1r	.	1r	2G	.	.	2dd	1d
.	.	.	.	.	8AL	.	.
.	.	.	.	.	8GJ	.	.
.	.	.	2D	2f#i	2A	2dd	.
=67	=67	=67	=67	=67	=67	=67	=67
0r	2r	2r	1E	2g	1G	2b	1.g
.	2C	2G	.	2c	.	2cc	.
.	2E	2G	1r	2B	1r	2g	.
.	2F	2D	.	2A	.	[2a	2f
=68	=68	=68	=68	=68	=68	=68	=68
2r	1C	1E	2r	1e	2r	4a]	1.g
.	.	.	.	.	.	4g	.
2C	.	.	2G	.	2c	1g	.
2E	1r	1r	2G	1r	2B	.	.
2F	.	.	2D	.	2A	2f#i	[2a
=69	=69	=69	=69	=69	=69	=69	=69
1C	2r	2r	2.E	2r	1e	1g	4a]
.	.	.	.	.	.	.	4g
.	2C	2G	.	2c	.	.	1g
.	.	.	4F	.	.	.	.
1r	2E	2G	2G	2B	1r	2r	.
.	2F	2D	[2A	2A	.	2a	2f#i
=70	=70	=70	=70	=70	=70	=70	=70
2r	1C	2.E	4A]	1e	2r	1cc	1g
.	.	.	4G	.	.	.	.
2C	.	.	1G	.	2.e	.	.
.	.	4F	.	.	.	.	.
2E	1r	2G	.	2r	.	2b	1r
.	.	.	.	.	4d	.	.
2F	.	2A	2F#i	2A	[2c	[2a	.
=71	=71	=71	=71	=71	=71	=71	=71
2C	0r	1E	2G	1c	4c]	4a]	0r
.	.	.	.	.	4B	4g	.
2E	.	.	2C	.	2G	1g	.
1D	.	2r	1F	2B	1d	.	.
.	.	2A	.	[2A	.	2f#i	.
=72	=72	=72	=72	=72	=72	=72	=72
1C	2r	1c	2E	4A]	2.e	1g	1r
.	.	.	.	4G	.	.	.
.	2C	.	2.e	1G	.	.	.
.	.	.	.	.	4f	.	.
1r	2E	2B	.	.	2g	1r	2r
.	.	.	4d	.	.	.	.
.	2F	[2A	[2c	2F#i	2a	.	2a
=73	=73	=73	=73	=73	=73	=73	=73
0r	2C	4A]	4c]	1G	2g	1r	1cc
.	.	4G	4B	.	.	.	.
.	2E	1G	2G	.	2e	.	.
.	1D	.	1d	1r	1f	2r	2b
.	.	2F#i	.	.	.	2a	[2a
=74	=74	=74	=74	=74	=74	=74	=74
2r	1C	1G	2e	2r	2r	1cc	4a]
.	.	.	.	.	.	.	4g
2C	.	.	2E	2c	2.e	.	1g
2E	1r	1r	2r	2G	.	2b	.
.	.	.	.	.	4d	.	.
2F	.	.	2F	2A	[2c	[2a	2f#i
=75	=75	=75	=75	=75	=75	=75	=75
2C	0r	1r	2E	2.c	4c]	4a]	1g
.	.	.	.	.	4B	4g	.
2E	.	.	2C	.	2G	1g	.
.	.	.	.	4B	.	.	.
1D	.	2r	1F	2A	1d	.	1r
.	.	2A	.	2A	.	2f#i	.
=76	=76	=76	=76	=76	=76	=76	=76
0GG	1r	2.B	1D	0G	0d	0g	0r
.	.	4c	.	.	.	.	.
.	1G	2d	2r	.	.	.	.
.	.	2B	2d	.	.	.	.
=77	=77	=77	=77	=77	=77	=77	=77
0r	2C	1c	2e	1r	1g	2r	0r
.	2E	.	2d	.	.	2g	.
.	1D	1A	1d	[1d	1f	2a	.
.	.	.	.	.	.	2a	.
=78	=78	=78	=78	=78	=78	=78	=78
1G	0r	2G	1B	1d]	0g	1b	0r
.	.	2d	.	.	.	.	.
2C	.	2e	1c	1g	.	2r	.
2E	.	2c	.	.	.	2e	.
=79	=79	=79	=79	=79	=79	=79	=79
1D	1r	1d	1A	1f	1a	2f	0r
.	.	.	.	.	.	2.d	.
1r	2r	1B	1G	[1g	1r	.	.
.	.	.	.	.	.	4c	.
.	2G	.	.	.	.	2d	.
=80	=80	=80	=80	=80	=80	=80	=80
0r	2C	1c	1r	1g]	2r	2e	0r
.	2E	.	.	.	1g	2c	.
.	1D	1A	2r	1a	.	1d	.
.	.	.	2F	.	2f	.	.
=81	=81	=81	=81	=81	=81	=81	=81
1C	0r	0G	1c	1r	1e	2r	0r
.	.	.	.	.	.	2.g	.
2.G	.	.	[1B	2r	1d	.	.
.	.	.	.	.	.	4f	.
.	.	.	.	[2g	.	4g	.
4F	.	.	.	.	.	4a	.
=82	=82	=82	=82	=82	=82	=82	=82
2E	1r	1r	1B]	2g]	0r	4b	0r
.	.	.	.	.	.	4cc	.
2D	.	.	.	2f	.	2dd	.
2C	2r	2r	1c	1e	.	1g	.
2C	2C	[2G	.	.	.	.	.
=83	=83	=83	=83	=83	=83	=83	=83
1GG	2.G	4G]	1d	2d	2r	2r	0r
.	.	4F	.	.	.	.	.
.	.	4G	.	1G	2d	1g	.
.	4F	4A	.	.	.	.	.
1r	2E	4B	1r	.	2e	.	.
.	.	4c	.	.	.	.	.
.	2D	2d	.	4A	2f	2f	.
.	.	.	.	4B	.	.	.
=84	=84	=84	=84	=84	=84	=84	=84
2r	2C	1G	2r	1c	2g	1e	0g
2C	2C	.	1c	.	2.G	.	.
2.G	1GG	1G	.	2r	.	1d	.
.	.	.	.	.	4A	.	.
.	.	.	2B	2d	2B	.	.
4F	.	.	.	.	.	.	.
=85	=85	=85	=85	=85	=85	=85	=85
4E	1AA	1r	1A	2.e	2.c	2r	1cc
4D	.	.	.	.	.	.	.
2C	.	.	.	.	.	2c	.
.	.	.	.	4f	4d	.	.
2r	1E	1G	1G	4g	[1e	2.g	1b
.	.	.	.	4G	.	.	.
2G	.	.	.	[2g	.	.	.
.	.	.	.	.	.	4f	.
=86	=86	=86	=86	=86	=86	=86	=86
2.A	0AA	0c	0r	2g]	2e]	2e	0cc
.	.	.	.	2f	2A	2d	.
4B	.	.	.	.	.	.	.
2c	.	.	.	1e	1A	2c	.
2C	.	.	.	.	.	2c	.
=87	=87	=87	=87	=87	=87	=87	=87
1G	0r	1B	0r	1d	2r	2G	1dd
.	.	.	.	.	1G	2.g	.
2E	.	[1c	.	1r	.	.	[1cc
.	.	.	.	.	.	4f	.
2F	.	.	.	.	2F	[2a	.
=88	=88	=88	=88	=88	=88	=88	=88
1C	0r	1c]	1r	0r	1E	2a]	2cc]
.	.	.	.	.	.	1g	2cc
2r	.	1d	2r	.	1D	.	1a
2D	.	.	2d	.	.	2f#i	.
=89	=89	=89	=89	=89	=89	=89	=89
2E	0r	2r	2c	0r	0r	2g	1g
2C	.	1c	2.e	.	.	2c	.
1G	.	.	.	.	.	1d	2r
.	.	.	4d	.	.	.	.
.	.	2B	[2d	.	.	.	2g
=90	=90	=90	=90	=90	=90	=90	=90
1r	0r	1A	2d]	1r	0r	1e	1cc
.	.	.	2c	.	.	.	.
2r	.	1G	2d	2r	.	1r	1b
2G	.	.	2B	2g	.	.	.
=91	=91	=91	=91	=91	=91	=91	=91
2A	2r	0r	2A	2e	0r	0r	1cc
1F	1c	.	2.f	2.a	.	.	.
.	.	.	.	.	.	.	1dd
.	.	.	4e	4g	.	.	.
2G	2B	.	[2d	[2g	.	.	.
=92	=92	=92	=92	=92	=92	=92	=92
2D	1A	0r	4d]	2g]	1r	0r	2r
.	.	.	4c	.	.	.	.
2F	.	.	2A	2f#i	.	.	1cc
2C	1G	.	2c	1g	2r	.	.
2G	.	.	2G	.	[2g	.	2b
=93	=93	=93	=93	=93	=93	=93	=93
2D	2r	0r	2d	0r	2g]	0r	1a
2F	2D	.	2A	.	2f	.	.
2C	2E	.	1c	.	1e	.	1g
[2c	2C	.	.	.	.	.	.
=94	=94	=94	=94	=94	=94	=94	=94
2c]	1G	2r	1G	2r	0d	0r	1r
2B	.	2.d	.	1g	.	.	.
1A	1D	.	1r	.	.	.	1a
.	.	4e	.	.	.	.	.
.	.	2f	.	2f	.	.	.
=95	=95	=95	=95	=95	=95	=95	=95
0G	1r	2g	1r	1e	1r	2r	0b-X
.	.	2G	.	.	.	2g	.
.	2r	2G	2r	1d	2r	2dd	.
.	[2G	2G	[2d	.	2G	2dd	.
=96	=96	=96	=96	=96	=96	=96	=96
1r	2G]	1D	4d]	1r	1d	1dd	1a
.	.	.	4e	.	.	.	.
.	2F	.	2f	.	.	.	.
2r	1E	1r	2g	2r	1e	2r	1g
[2G	.	.	2e	2G	.	2g	.
=97	=97	=97	=97	=97	=97	=97	=97
2G]	1D	0r	1f	1d	1A	2a	1r
2F	.	.	.	.	.	2a	.
1E	1r	.	2g	1e	1r	1g	1e
.	.	.	2G	.	.	.	.
=98	=98	=98	=98	=98	=98	=98	=98
1D	2r	2r	1d	0A	1r	2r	1f
.	2D	1d	.	.	.	2.a	.
1r	2A	.	1r	.	2r	.	1e
.	.	.	.	.	.	4b	.
.	2A	2c	.	.	2e	2cc	.
=99	=99	=99	=99	=99	=99	=99	=99
1r	0D	1B-X	0r	2r	0f	1dd	1d
.	.	.	.	1d	.	.	.
2r	.	1A	.	.	.	1a	2r
2D	.	.	.	4c	.	.	[2a
.	.	.	.	4B	.	.	.
=100	=100	=100	=100	=100	=100	=100	=100
2A	0r	0r	1r	1c	1e	2r	4a]
.	.	.	.	.	.	.	4b
2A	.	.	.	.	.	1a	2cc
1D	.	.	1A	1d	[1d	.	3.f
.	.	.	.	.	.	4g	6g
.	.	.	.	.	.	.	3a
.	.	.	.	.	.	4f	.
=101	=101	=101	=101	=101	=101	=101	=101
1G	0r	2r	1B-X	2r	1d]	1g	1d
.	.	1d	.	2d	.	.	.
2F	.	.	1A	1f	1r	1a	1r
2D	.	4c	.	.	.	.	.
.	.	4B	.	.	.	.	.
=102	=102	=102	=102	=102	=102	=102	=102
1E	0r	1c	2G	1e	0r	0r	1g
.	.	.	2E	.	.	.	.
1D	.	2d	1F	2.A	.	.	2f
.	.	[2A	.	.	.	.	2d
.	.	.	.	4B	.	.	.
=103	=103	=103	=103	=103	=103	=103	=103
2C	0r	4A]	2E	1c	2r	0r	1e
.	.	4B	.	.	.	.	.
2AA	.	2c	2C	.	2c	.	.
1BB-X	.	2F	2.D	1r	2.f	.	1d
.	.	2G	.	.	.	.	.
.	.	.	4E	.	8eL	.	.
.	.	.	.	.	8dJ	.	.
=104	=104	=104	=104	=104	=104	=104	=104
2AA	0r	1A	2F	2r	2c	0r	2.A
2D	.	.	2D	2.A	2d	.	.
.	.	.	.	.	.	.	4B
2C	.	1r	2E	.	2G	.	4c
.	.	.	.	4B	.	.	4d
2AA	.	.	2C	2c	2A	.	[2e
=105	=105	=105	=105	=105	=105	=105	=105
1BB-X	0r	0r	1D	2F	1D	1r	4e]
.	.	.	.	.	.	.	4d
.	.	.	.	2G	.	.	1d
1AA	.	.	1E	1A	1r	2r	.
.	.	.	.	.	.	2e	2c#i
=106	=106	=106	=106	=106	=106	=106	=106
0r	2r	1.d	0D	0A	2r	2.f	0d
.	2D	.	.	.	2.a	.	.
.	.	.	.	.	.	4g	.
.	2.F	.	.	.	.	4a	.
.	.	.	.	.	4g	4b-i	.
.	.	2A	.	.	2f	[2a	.
.	4G	.	.	.	.	.	.
=107	=107	=107	=107	=107	=107	=107	=107
0r	2A	2c	0r	0r	2e	2a]	1r
.	2B-i	2d	.	.	1d	2g	.
.	2A	2e	.	.	.	1a	2r
.	2A	2e	.	.	2c#i	.	2A
=108	=108	=108	=108	=108	=108	=108	=108
2r	0D	0d	1.G	2r	1d	0r	2.B
2GG	.	.	.	2.d	.	.	.
.	.	.	.	.	.	.	4c
2.BB	.	.	.	.	1r	.	4d
.	.	.	.	4c	.	.	4e
.	.	.	2D	2B	.	.	[2d
4C	.	.	.	.	.	.	.
=109	=109	=109	=109	=109	=109	=109	=109
2D	0r	0r	2F	2A	1r	0r	2d]
2E	.	.	2G	1G	.	.	2c#i
2D	.	.	2A	.	2r	.	[1d
2D	.	.	2A	2F#i	2A	.	.
=110	=110	=110	=110	=110	=110	=110	=110
1GG	2r	0r	1G	2G	2.B	1.dd	1d]
.	2D	.	.	2.d	.	.	.
.	.	.	.	.	4c	.	.
1D	2.F	.	2r	.	1d	.	1r
.	.	.	.	4e	.	.	.
.	.	.	2D	2f	.	2a	.
.	4G	.	.	.	.	.	.
=111	=111	=111	=111	=111	=111	=111	=111
2C	2A	0r	2E	2e	1r	2cc	0r
2BB-X	2D	.	2G	1d	.	2dd	.
1AA	2A	.	1E	.	2r	2ee	.
.	2A	.	.	2c#i	2A	2ee	.
=112	=112	=112	=112	=112	=112	=112	=112
2r	[0D	2r	1r	2d	2.B	[0dd	2r
1GG	.	2.d	.	2G	.	.	1g
.	.	.	.	.	4c	.	.
.	.	.	1G	2.B	1d	.	.
.	.	4c	.	.	.	.	.
2GG	.	2B	.	.	.	.	2d
.	.	.	.	4c	.	.	.
=113	=113	=113	=113	=113	=113	=113	=113
2D	0D_	2A	2F	2d	2A	0dd_	2f
2GG	.	1G	2.D	2B	4B	.	2g
.	.	.	.	.	4c	.	.
2D	.	.	.	2A	2d	.	2a
.	.	.	4E	.	.	.	.
2D	.	2F#i	2F	[2d	2A	.	2a
=114	=114	=114	=114	=114	=114	=114	=114
0GG	0D]	[0Gl	2D	4d]	2.B	0dd]	[0gl
.	.	.	.	4c	.	.	.
.	.	.	1G	4B	.	.	.
.	.	.	.	4A	4c	.	.
.	.	.	.	1G	1d	.	.
.	.	.	2G	.	.	.	.
=115	=115	=115	=115	=115	=115	=115	=115
2r	0r	0G_	2d	2r	2r	2r	0g_
1GG	.	.	2G	1B	1d	1dd	.
.	.	.	2d	.	.	.	.
2GG	.	.	2d	2d	2B	2dd	.
=116	=116	=116	=116	=116	=116	=116	=116
2C	0r	0G_	1G	2c	2c	2ee	0g_
2GG	.	.	.	2B	2d	2dd	.
2C	.	.	2r	2c	2e	2cc	.
2C	.	.	[2G	2G	2e	2cc	.
=117	=117	=117	=117	=117	=117	=117	=117
[0GGl	2r	0G_	2G]	1B	[0dl	[0bl	0g_
.	1D	.	2G	.	.	.	.
.	.	.	2d	2r	.	.	.
.	2D	.	2G	[2G	.	.	.
=118	=118	=118	=118	=118	=118	=118	=118
0GG_	2G	0G_	2d	2G]	0d_	0b_	0g_
.	2D	.	2d	2G	.	.	.
.	2G	.	1D	2d	.	.	.
.	2G	.	.	2G	.	.	.
=119	=119	=119	=119	=119	=119	=119	=119
0GG_	[0Dl	0G_	[0Gl	2d	0d_	0b_	0g_
.	.	.	.	2d	.	.	.
.	.	.	.	[1Bl	.	.	.
=120	=120	=120	=120	=120	=120	=120	=120
0GG]	0D]	0G]	0G]	0B]	0d]	0b]	0g]
=121||	=121||	=121||	=121||	=121||	=121||	=121||	=121||
*M2/1	*M2/1	*M2/1	*M2/1	*M2/1	*M2/1	*M2/1	*M2/1
*met(C|)	*met(C|)	*met(C|)	*met(C|)	*met(C|)	*met(C|)	*met(C|)	*met(C|)
!!section: Secunda pars: Ave solem
!!!OMD: Secunda pars: Ave solem
2.GG	0r	0G	0r	0r	2.d	0r	0r
4AA	.	.	.	.	4c	.	.
2BB	.	.	.	.	2d	.	.
[2C	.	.	.	.	[2e	.	.
=122	=122	=122	=122	=122	=122	=122	=122
2C]	0r	1c	0r	1r	2e]	0g	0r
4BB	.	.	.	.	4d	.	.
4AA	.	.	.	.	4c	.	.
2GG	.	1B	.	2r	1d	.	.
2G	.	.	.	2g	.	.	.
=123	=123	=123	=123	=123	=123	=123	=123
2F	1r	1c	0r	2a	1r	1cc	0r
2A	.	.	.	2f	.	.	.
1G	2r	1d	.	1g	2r	1b	.
.	2G	.	.	.	2g	.	.
=124	=124	=124	=124	=124	=124	=124	=124
1r	2F	2r	0r	1r	2a	1cc	0r
.	2A	1c	.	.	4.f	.	.
.	.	.	.	.	8e	.	.
2r	1G	.	.	2r	1g	1dd	.
[2G	.	2B	.	2d	.	.	.
=125	=125	=125	=125	=125	=125	=125	=125
2G]	1r	1A	0r	2e	2r	2r	0r
2F	.	.	.	2f	2c	1cc	.
1E	2r	1G	.	1g	1e	.	.
.	[2G	.	.	.	.	2g	.
=126	=126	=126	=126	=126	=126	=126	=126
1D	2G]	2r	1D	0r	1f	1a	0r
.	2F	2A	.	.	.	.	.
1r	1E	2B	1G	.	2g	1g	.
.	.	2c	.	.	2G	.	.
=127	=127	=127	=127	=127	=127	=127	=127
2r	1D	1d	1F	2r	2A	0r	1d
2D	.	.	.	2d	2A	.	.
2C	1r	1r	1G	2e	1E	.	1g
2E	.	.	.	2c	.	.	.
=128	=128	=128	=128	=128	=128	=128	=128
1D	2r	0r	1A	1d	2r	0r	1f
.	2D	.	.	.	2d	.	.
1r	2C	.	2r	1r	2e	.	1g
.	2E	.	[2G	.	4.c	.	.
.	.	.	.	.	8B	.	.
=129	=129	=129	=129	=129	=129	=129	=129
2r	1D	0r	2G]	2r	1d	0r	1a
1D	.	.	2F	2A	.	.	.
.	1r	.	1E	2B	2r	.	2r
2C	.	.	.	2c	2G	.	[2g
=130	=130	=130	=130	=130	=130	=130	=130
1BB	2r	2r	1D	1d	1B	0r	2g]
.	1D	2D	.	.	.	.	2d
1AA	.	2A	1r	2r	1c	.	1e
.	2C	2A	.	2A	.	.	.
=131	=131	=131	=131	=131	=131	=131	=131
2r	1BB	1D	0r	1B	2d	0r	1d
2GG	.	.	.	.	2D	.	.
1C	1AA	2r	.	1c	2E	.	1r
.	.	2A	.	.	2E	.	.
=132	=132	=132	=132	=132	=132	=132	=132
1BB	0r	2B	1D	2d	1D	0r	0r
.	.	2d	.	2D	.	.	.
1C	.	2c	1G	2E	1r	.	.
.	.	2G	.	2E	.	.	.
=133	=133	=133	=133	=133	=133	=133	=133
1D	0r	2d	1F	1D	2r	0r	1d
.	.	2D	.	.	2d	.	.
1r	.	1E	1G	1r	2.B	.	1g
.	.	.	.	.	4c	.	.
=134	=134	=134	=134	=134	=134	=134	=134
0r	0r	2D	1A	0r	2d	0r	1f
.	.	1d	.	.	2D	.	.
.	.	.	2r	.	2E	.	1g
.	.	2c	[2G	.	2E	.	.
=135	=135	=135	=135	=135	=135	=135	=135
0r	0r	1d	2G]	2r	1D	0r	1a
.	.	.	2F	2d	.	.	.
.	.	1G	1E	2d	1r	.	2r
.	.	.	.	2c	.	.	[2g
=136	=136	=136	=136	=136	=136	=136	=136
1r	2r	1A	1D	1d	0r	1r	2g]
.	2D	.	.	.	.	.	2f
2r	2E	[1G	1r	1r	.	[1g	1e
[2C	4C	.	.	.	.	.	.
.	4D	.	.	.	.	.	.
=137	=137	=137	=137	=137	=137	=137	=137
2C]	4E	1G]	0r	2r	0r	1g]	1d
.	4F	.	.	.	.	.	.
2BB	1G	.	.	2d	.	.	.
1AA	.	2r	.	2e	.	1cc	1r
.	2F#i	2A	.	4c	.	.	.
.	.	.	.	4d	.	.	.
=138	=138	=138	=138	=138	=138	=138	=138
1GG	1G	3B	0r	4e	2r	1b	0r
.	.	.	.	4f	.	.	.
.	.	3G	.	.	.	.	.
.	.	.	.	1g	2d	.	.
.	.	3B	.	.	.	.	.
1r	2r	1A	.	.	2e	1cc	.
.	[2c	.	.	2f#i	4c	.	.
.	.	.	.	.	4d	.	.
=139	=139	=139	=139	=139	=139	=139	=139
0r	2c]	1G	0r	1g	4e	1dd	2r
.	.	.	.	.	4f	.	.
.	2B	.	.	.	1g	.	2d
.	1A	1r	.	1r	.	2r	2e
.	.	.	.	.	2f#i	[2cc	4c
.	.	.	.	.	.	.	4d
=140	=140	=140	=140	=140	=140	=140	=140
1r	1G	0r	1r	0r	2g	2cc]	4e
.	.	.	.	.	.	.	4f
.	.	.	.	.	2G	2b	1g
1D	1r	.	2r	.	1d	1a	.
.	.	.	2A	.	.	.	2f#i
=141	=141	=141	=141	=141	=141	=141	=141
2GG	1r	0r	1B	2r	0r	1g	1g
1G	.	.	.	2d	.	.	.
.	2r	.	1A	2e	.	2r	1r
2F#i	2D	.	.	2f	.	2a	.
=142	=142	=142	=142	=142	=142	=142	=142
1G	2GG	1r	1G	1d	2r	1b-X	0r
.	1G	.	.	.	2d	.	.
2r	.	1A	1r	1r	2e	1a	.
2D	2F#i	.	.	.	2f	.	.
=143	=143	=143	=143	=143	=143	=143	=143
2GG	1G	1B	0r	2r	1d	1g	0r
1G	.	.	.	2.d	.	.	.
.	1D	1A	.	.	2r	1r	.
.	.	.	.	4e	.	.	.
2F#i	.	.	.	2f	2A	.	.
=144	=144	=144	=144	=144	=144	=144	=144
2G	0r	1G	1r	2d	2B	2r	0r
2C	.	.	.	2e	2c	2e	.
2D	.	2r	2r	2d	[1A	2f	.
2C	.	2E	2c	2r	.	[2e	.
=145	=145	=145	=145	=145	=145	=145	=145
1D	0r	1F	2A	2r	1A]	4e]	0r
.	.	.	.	.	.	4d	.
.	.	.	2F	2.A	.	1d	.
1AA	.	1E	2A	.	2r	.	.
.	.	.	.	4B	.	.	.
.	.	.	2G	2c	2e	2c#i	.
=146	=146	=146	=146	=146	=146	=146	=146
0r	1r	1D	2F	2A	1f	1d	2r
.	.	.	2D	1d	.	.	2.a
.	2r	1r	1E	.	1e	1r	.
.	.	.	.	.	.	.	4b
.	2A	.	.	2c#i	.	.	2cc
=147	=147	=147	=147	=147	=147	=147	=147
2r	2B	0r	[0D	1d	[0d	0r	3.f
2A	2.A	.	.	.	.	.	6g
.	.	.	.	.	.	.	3a
1B	.	.	.	1r	.	.	1d
.	4G	.	.	.	.	.	.
.	[2G	.	.	.	.	.	.
=148	=148	=148	=148	=148	=148	=148	=148
1A	2G]	0r	1D]	1r	0d_	0r	2r
.	2F	.	.	.	.	.	2a
2G	2G	.	1r	2r	.	.	2b
2D	2F	.	.	2A	.	.	[2a
=149	=149	=149	=149	=149	=149	=149	=149
2G	1G	0r	2r	1B-X	0d]	0r	4a]
.	.	.	.	.	.	.	4g
2GG	.	.	2.d	.	.	.	1g
1D	1D	.	.	1A	.	.	.
.	.	.	4c	.	.	.	.
.	.	.	2A	.	.	.	2f#i
=150	=150	=150	=150	=150	=150	=150	=150
0GG	1r	2r	2B	0G	1r	0r	0g
.	.	1G	2G	.	.	.	.
.	2r	.	2.d	.	2r	.	.
.	[2D	2D	.	.	[2d	.	.
.	.	.	4c	.	.	.	.
=151	=151	=151	=151	=151	=151	=151	=151
0r	2D]	2F	2A	0r	2d]	0r	0r
.	2E	2G	2.e	.	2B	.	.
.	2.AA	2A	.	.	2.c	.	.
.	.	.	4d	.	.	.	.
.	.	2A	[2c	.	.	.	.
.	4BB	.	.	.	4d	.	.
=152	=152	=152	=152	=152	=152	=152	=152
1r	2C	0G	4c]	1r	2e	2r	0r
.	.	.	4B	.	.	.	.
.	2C	.	4G	.	2e	1g	.
.	.	.	4A	.	.	.	.
2r	1GG	.	1B	2r	1d	.	.
[2D	.	.	.	[2d	.	2d	.
=153	=153	=153	=153	=153	=153	=153	=153
2D]	0r	0r	2r	2d]	0r	2f	0r
2E	.	.	2.e	2B	.	2g	.
2.AA	.	.	.	2.c	.	2a	.
.	.	.	4d	.	.	.	.
.	.	.	[2c	.	.	2a	.
4BB	.	.	.	4d	.	.	.
=154	=154	=154	=154	=154	=154	=154	=154
2C	2r	1c	4c]	2e	0r	0g	2r
.	.	.	4B	.	.	.	.
2C	2C	.	4G	2e	.	.	1g
.	.	.	4A	.	.	.	.
1GG	1G	2.B	4B	1d	.	.	.
.	.	.	4c	.	.	.	.
.	.	.	4d	.	.	.	2d
.	.	4G	4B	.	.	.	.
=155	=155	=155	=155	=155	=155	=155	=155
0r	2F	2A	1c	1r	0r	0r	2f
.	2E	1G	.	.	.	.	2g
.	2D	.	1A	1d	.	.	2a
.	2D	2F#i	.	.	.	.	2a
=156	=156	=156	=156	=156	=156	=156	=156
2r	1GG	0G	2r	1B	0r	1g	0g
2G	.	.	2d	.	.	.	.
1C	2r	.	2c	1c	.	1e	.
.	[2G	.	2e	.	.	.	.
=157	=157	=157	=157	=157	=157	=157	=157
1D	4G]	0r	2.d	1A	0r	1f	1r
.	8F#iL	.	.	.	.	.	.
.	8EJ	.	.	.	.	.	.
.	2F#i	.	.	.	.	.	.
.	.	.	4c	.	.	.	.
1GG	1G	.	2B	1r	.	1d	2r
.	.	.	2G	.	.	.	2g
=158	=158	=158	=158	=158	=158	=158	=158
0r	1D	2r	1A	0r	1d	2r	2g
.	.	2d	.	.	.	2a	2f
.	1r	1G	2G	.	1B	2b	1g
.	.	.	2g	.	.	[2dd	.
=159	=159	=159	=159	=159	=159	=159	=159
0r	0r	1A	1e	1r	1c	2dd]	2r
.	.	.	.	.	.	2cc#i	1a
.	.	1D	1f	1d	1A	1dd	.
.	.	.	.	.	.	.	2f
=160	=160	=160	=160	=160	=160	=160	=160
1.G	2r	1d	1d	1B	2r	1r	1g
.	2G	.	.	.	2d	.	.
.	1C	2c	1r	1c	2e	1r	1e
2E	.	2e	.	.	[2g	.	.
=161	=161	=161	=161	=161	=161	=161	=161
1F	1D	2.d	0r	2A	2g]	1r	2r
.	.	.	.	1d	2f#i	.	2a
.	.	4c	.	.	.	.	.
1D	1GG	1B	.	.	1g	2r	2b
.	.	.	.	2d	.	2e	[2dd
=162	=162	=162	=162	=162	=162	=162	=162
2r	0r	1A	2r	1e	1r	1e	2dd]
2AA	.	.	2c	.	.	.	2cc#i
1D	.	2r	1A	[1d	1d	1f	1dd
.	.	2D	.	.	.	.	.
=163	=163	=163	=163	=163	=163	=163	=163
1GG	2r	2G	1B	1d]	1B	2d	2r
.	2G	2G	.	.	.	1g	2d
2C	1E	1C	1G	1r	1c	.	2e
2E	.	.	.	.	.	2g	[2g
=164	=164	=164	=164	=164	=164	=164	=164
1D	1F	1r	0r	1d	1A	1a	2g]
.	.	.	.	.	.	.	2f#i
1GG	2D	2r	.	1B	2r	[1g	1g
.	[2G	2D	.	.	2d	.	.
=165	=165	=165	=165	=165	=165	=165	=165
0r	2G]	2G	0r	1c	2e	1g]	1r
.	2G	2B	.	.	1g	.	.
.	1A	1A	.	2A	.	1r	2r
.	.	.	.	[2d	2f#i	.	2a
=166	=166	=166	=166	=166	=166	=166	=166
0r	1G	0r	0r	2d]	1g	0r	2b
.	.	.	.	2d	.	.	1dd
.	2r	.	.	1e	1r	.	.
.	2c	.	.	.	.	.	2cc#i
=167	=167	=167	=167	=167	=167	=167	=167
1G	1B	0r	0r	1d	1r	0r	1dd
1F	1A	.	.	1r	2r	.	1r
.	.	.	.	.	[2c	.	.
=168	=168	=168	=168	=168	=168	=168	=168
1E	1G	1r	0r	1g	2c]	0r	0r
.	.	.	.	.	1B	.	.
1D	1r	2r	.	1f	.	.	.
.	.	2d	.	.	[2A	.	.
=169	=169	=169	=169	=169	=169	=169	=169
0r	0r	2e	1c	1e	2A]	0r	0r
.	.	2c	.	.	1G	.	.
.	.	1d	1B	1d	.	.	.
.	.	.	.	.	2g	.	.
=170	=170	=170	=170	=170	=170	=170	=170
0r	1r	1A	1A	1r	2g	1cc	1r
.	.	.	.	.	2f#i	.	.
.	2r	1r	1G	2r	1g	1b	1g
.	2G	.	.	2B	.	.	.
=171	=171	=171	=171	=171	=171	=171	=171
2r	2A	0r	1r	2c	0r	1a	1f
2D	2F	.	.	2d	.	.	.
2E	1G	.	2r	2B	.	1g	1e
2C	.	.	2E	2c	.	.	.
=172	=172	=172	=172	=172	=172	=172	=172
1D	1D	0r	1F	0A	2r	1r	2d
.	.	.	.	.	2d	.	2.a
1AA	1r	.	1E	.	2e	2r	.
.	.	.	.	.	.	.	4b
.	.	.	.	.	2c	2e	2cc
=173	=173	=173	=173	=173	=173	=173	=173
0r	0r	0r	1D	0r	1d	1f	2a
.	.	.	.	.	.	.	1dd
.	.	.	2r	.	1A	1e	.
.	.	.	2A	.	.	.	2cc#i
=174	=174	=174	=174	=174	=174	=174	=174
2r	0r	1G	1B-X	0r	0r	1d	0dd
1G	.	.	.	.	.	.	.
.	.	1D	1A	.	.	1r	.
2F	.	.	.	.	.	.	.
=175	=175	=175	=175	=175	=175	=175	=175
2E	0r	0r	2G	0r	0r	0r	0r
2D	.	.	2B	.	.	.	.
2C	.	.	4A	.	.	.	.
.	.	.	4G	.	.	.	.
2BB	.	.	[2G	.	.	.	.
=176	=176	=176	=176	=176	=176	=176	=176
1AA	0r	1r	2G]	1r	2r	0r	0r
.	.	.	2F#i	.	2A	.	.
1GG	.	2r	1G	2r	1B-X	.	.
.	.	[2d	.	2d	.	.	.
=177	=177	=177	=177	=177	=177	=177	=177
0r	0r	2d]	0r	2f	1A	0r	0r
.	.	2c	.	2e	.	.	.
.	.	2B	.	2d	1D	.	.
.	.	2A	.	2f	.	.	.
=178	=178	=178	=178	=178	=178	=178	=178
0r	0r	2G	0r	2e	1r	0r	1r
.	.	2F	.	1d	.	.	.
.	.	1E	.	.	2r	.	2r
.	.	.	.	2c#i	[2g	.	2g
=179	=179	=179	=179	=179	=179	=179	=179
0r	0r	1D	0r	1d	2g]	0r	2b-X
.	.	.	.	.	2f	.	2a
.	.	1r	.	1r	2e	.	2g
.	.	.	.	.	2d	.	2b-i
=180	=180	=180	=180	=180	=180	=180	=180
0r	0r	1r	0r	0r	2c	0r	2a
.	.	.	.	.	2B	.	1g
.	.	2r	.	.	1A	.	.
.	.	2A	.	.	.	.	2f#i
=181	=181	=181	=181	=181	=181	=181	=181
0r	2r	1B-X	0r	0r	1G	0r	1g
.	1G	.	.	.	.	.	.
.	.	1A	.	.	1r	.	1r
.	2F	.	.	.	.	.	.
=182	=182	=182	=182	=182	=182	=182	=182
0r	2E	2G	0r	0r	0r	0r	0r
.	2D	2B-i	.	.	.	.	.
.	2C	2A	.	.	.	.	.
.	2BB	[2G	.	.	.	.	.
=183	=183	=183	=183	=183	=183	=183	=183
1r	1AA	2G]	1r	2r	1r	0r	0r
.	.	2F#i	.	2A	.	.	.
2r	1GG	1G	2r	1B-X	[1d	.	.
2GG	.	.	[2D	.	.	.	.
=184	=184	=184	=184	=184	=184	=184	=184
2D	1r	0r	4D]	1A	1d]	1a	0r
.	.	.	4E	.	.	.	.
2D	.	.	2F	.	.	.	.
1GG	2r	.	2G	2G	2d	1b-X	.
.	2GG	.	[2D	[2g	2d	.	.
=185	=185	=185	=185	=185	=185	=185	=185
0r	2D	2r	4D]	4g]	1d	1a	0r
.	.	.	4E	4f	.	.	.
.	2D	2A	2F	2f	.	.	.
.	2GG	2B-i	2G	2e	2r	2g	.
.	2D	2A	2F	[2d	[2f	[2a	.
=186	=186	=186	=186	=186	=186	=186	=186
2r	2F	1F	2A	4d]	4f]	4a]	0r
.	.	.	.	4c	4e	4g	.
2GG	2G	.	2D	2B	2.d	1g	.
2D	1D	1r	1F	1A	.	.	.
.	.	.	.	.	4c	.	.
2D	.	.	.	.	2A	2f#i	.
=187	=187	=187	=187	=187	=187	=187	=187
*M3/1	*M3/1	*M3/1	*M3/1	*M3/1	*M3/1	*M3/1	*M3/1
*met(3)	*met(3)	*met(3)	*met(3)	*met(3)	*met(3)	*met(3)	*met(3)
0GG	1r	0d	0.D	0.G	1.B	0.g	0g
.	0G	.	.	.	.	.	.
.	.	.	.	.	2c	.	.
1G	.	1B	.	.	1d	.	[1g
=188	=188	=188	=188	=188	=188	=188	=188
1C	1E	1c	1r	0.r	1e	0.r	1g]
0D	1F	1A	0d	.	1d	.	0f
.	1D	1d	.	.	1r	.	.
=189	=189	=189	=189	=189	=189	=189	=189
1GG	1G	1d	1B	0.r	1r	0g	0g
1C	1G	0e	0c	.	1G	.	.
1C	[1A	.	.	.	1G	1e	1r
=190	=190	=190	=190	=190	=190	=190	=190
1D	1A]	0d	1A	0d	1F	1f	0.r
0GG	0G	.	1d	.	1G	1d	.
.	.	1r	1d	1B	1r	1g	.
=191	=191	=191	=191	=191	=191	=191	=191
1C	0.r	1G	0e	1c	1g	1g	1r
1C	.	1E	.	1A	1g	0a	1r
1D	.	1F	[1d	1d	1f	.	[1dd
=192	=192	=192	=192	=192	=192	=192	=192
0GG	1G	1D	1d]	1d	1g	0.g	1dd]
.	1G	1G	1r	0e	1g	.	1b
1r	1C	1G	1r	.	1e	.	1cc
=193	=193	=193	=193	=193	=193	=193	=193
1D	1F	0A	1r	0d	1f	0.r	1a
1D	2F	.	1r	.	1d	.	1dd
.	2F	.	.	.	.	.	.
1GG	1G	[1G	[1G	1r	1g	.	1dd
=194	=194	=194	=194	=194	=194	=194	=194
1C	0C	1G]	1G]	1g	1g	0.r	0ee
2C	.	1r	1E	1g	0a	.	.
2C	.	.	.	.	.	.	.
1D	1r	1r	1F	1f	.	.	[1dd
=195	=195	=195	=195	=195	=195	=195	=195
0GG	1r	0d	1D	1g	0g	0g	0.dd]
.	0G	.	1r	1d	.	.	.
1GG	.	1B	1G	1d	1r	[1g	.
=196	=196	=196	=196	=196	=196	=196	=196
1C	1E	1c	1G	1e	1r	1g]	0.r
0D	1F	1A	0A	0d	0d	0f	.
.	1D	1d	.	.	.	.	.
=197	=197	=197	=197	=197	=197	=197	=197
1GG	1G	1d	0G	1r	1B	0g	0g
1C	1G	0e	.	1G	0c	.	.
1C	[1A	.	1r	1G	.	1r	1e
=198	=198	=198	=198	=198	=198	=198	=198
1D	1A]	0d	0d	1F	1A	0.r	1f
0GG	0G	.	.	1G	1d	.	1d
.	.	1r	1B	1r	1d	.	1g
=199	=199	=199	=199	=199	=199	=199	=199
1C	0.r	1G	1c	1g	0e	1r	1g
1C	.	1E	1A	1g	.	1r	0a
1D	.	1F	1d	1f	[1d	[1dd	.
=200	=200	=200	=200	=200	=200	=200	=200
0GG	1G	1D	1d	1g	1d]	1dd]	0.g
.	1G	1G	0e	1g	1r	1b	.
1r	1C	1G	.	1e	1r	1cc	.
=201	=201	=201	=201	=201	=201	=201	=201
1D	1F	0A	0d	1f	0.r	1a	0.r
1D	2F	.	.	1d	.	1dd	.
.	2F	.	.	.	.	.	.
1GG	1G	[1G	1r	1g	.	1dd	.
=202	=202	=202	=202	=202	=202	=202	=202
1C	0C	1G]	1G	1g	1g	0ee	0.r
2C	.	1r	1E	0a	1g	.	.
2C	.	.	.	.	.	.	.
1D	1r	1r	1F	.	1f	[1dd	.
=203	=203	=203	=203	=203	=203	=203	=203
1GG	0G	0.r	1D	0g	1g	0.dd]	0.r
1G	.	.	1G	.	0d	.	.
1D	[1F	.	1A	1r	.	.	.
=204	=204	=204	=204	=204	=204	=204	=204
1F	1F]	0c	1A	0.r	1A	0.r	1r
1C	0E	.	1G	.	1c	.	0g
1r	.	[1B	1G	.	1G	.	.
=205	=205	=205	=205	=205	=205	=205	=205
1r	0D	1B]	1D	1r	1d	0.r	0f
1D	.	0A	1F	1r	1A	.	.
1AA	1r	.	1C	[1c	1c	.	[1e
=206	=206	=206	=206	=206	=206	=206	=206
1C	0.r	0.G	1r	1c]	1G	0.r	1e]
0GG	.	.	1G	0B	1r	.	0d
.	.	.	1D	.	1d	.	.
=207	=207	=207	=207	=207	=207	=207	=207
0FF	0.r	1r	1F	0A	1A	0cc	0.r
.	.	1r	1C	.	1c	.	.
[1GG	.	[1G	1r	1G	1G	[1b	.
=208	=208	=208	=208	=208	=208	=208	=208
1GG]	1G	1G]	1r	1r	0.r	1b]	0.r
1r	1D	0F	1r	1d	.	0a	.
1r	1F	.	[1c	1A	.	.	.
=209	=209	=209	=209	=209	=209	=209	=209
1r	1C	0E	1c]	1c	0g	0g	0.r
1G	1r	.	0B	1G	.	.	.
1D	1r	[1D	.	1d	[1f	1r	.
=210	=210	=210	=210	=210	=210	=210	=210
1F	0.r	1D]	0A	1A	1f]	1r	0cc
1C	.	1r	.	1c	0e	1r	.
1r	.	1r	[1G	1G	.	[1g	[1b
=211	=211	=211	=211	=211	=211	=211	=211
0.r	1G	1r	1G]	0.r	0d	1g]	1b]
.	1D	1d	1r	.	.	0f	0a
.	1F	1A	1r	.	1r	.	.
=212	=212	=212	=212	=212	=212	=212	=212
1r	0C	1c	0E	0.r	0.r	0e	0g
1G	.	1G	.	.	.	.	.
1D	1r	1d	[1F	.	.	[1d	1r
=213	=213	=213	=213	=213	=213	=213	=213
1F	1D	1A	1F]	0.r	1r	1d]	0.r
1C	1AA	1c	0E	.	1r	0cc	.
1r	1C	1G	.	.	1c	.	.
=214	=214	=214	=214	=214	=214	=214	=214
1G	1GG	0.r	0.D	1r	1d	1b	0.r
1D	1r	.	.	1d	0f	0a	.
1F	1r	.	.	1A	.	.	.
=215	=215	=215	=215	=215	=215	=215	=215
0C	0.r	1r	0.r	1c	0g	0g	0e
.	.	1G	.	1G	.	.	.
1r	.	1D	.	1d	1r	1r	[1f
=216	=216	=216	=216	=216	=216	=216	=216
1D	1r	1F	0.r	1A	1r	1r	1f]
1AA	1r	1C	.	1c	1r	1r	0e
1C	1C	1G	.	1G	1c	1g	.
=217	=217	=217	=217	=217	=217	=217	=217
1GG	1G	1G	0.r	0.r	1d	1b-X	0d
1r	1D	1F	.	.	1f	1a	.
1r	1E	1G	.	.	1c	1g	1r
=218	=218	=218	=218	=218	=218	=218	=218
1r	1D	1A	1r	1r	1d	1f	1r
1r	1GG	1G	1r	1r	1B	1g	1r
1C	1C	1E	1G	1c	1c	1g	1g
=219	=219	=219	=219	=219	=219	=219	=219
1G	0.r	0.r	1G	1d	0.r	0.r	1b-X
1D	.	.	1F	1f	.	.	1a
1E	.	.	1G	1c	.	.	1g
=220	=220	=220	=220	=220	=220	=220	=220
1D	0.r	0.r	1A	1d	0.r	0.r	1f
1GG	.	.	1G	1B	.	.	1g
1C	.	.	1E	1c	.	.	1g
=221	=221	=221	=221	=221	=221	=221	=221
*M2/1	*M2/1	*M2/1	*M2/1	*M2/1	*M2/1	*M2/1	*M2/1
*met(C|)	*met(C|)	*met(C|)	*met(C|)	*met(C|)	*met(C|)	*met(C|)	*met(C|)
[0GG	0D	[0G	1r	0d	[0B	[0dd	[0b
.	.	.	[1G	.	.	.	.
=222	=222	=222	=222	=222	=222	=222	=222
0GG]	0G	0G]	2G]	0g	0B]	0dd]	0b]
.	.	.	2A	.	.	.	.
.	.	.	1B	.	.	.	.
=223	=223	=223	=223	=223	=223	=223	=223
0C	0E	0G	0E	0e	[0c	[0ee	1g
.	.	.	.	.	.	.	[1cc
=224	=224	=224	=224	=224	=224	=224	=224
0AA	[0A	0c	0e	[0a	0c]	0ee]	1cc]
.	.	.	.	.	.	.	[1a
=225	=225	=225	=225	=225	=225	=225	=225
[0D	0A]	0A	[0d	0a]	1.d	1.dd	1a]
.	.	.	.	.	.	.	[1dd
.	.	.	.	.	2e	4cc	.
.	.	.	.	.	.	4b	.
=226	=226	=226	=226	=226	=226	=226	=226
0D]	0D	[0d	0d]	1d	2.f	0a	2dd]
.	.	.	.	.	.	.	4cc
.	.	.	.	.	4e	.	4b
.	.	.	.	1f	2.d	.	1a
.	.	.	.	.	4c	.	.
=227	=227	=227	=227	=227	=227	=227	=227
0GG	[0G	0d]	0d	0g	0B	1dd	0b
.	.	.	.	.	.	[1dd	.
=228	=228	=228	=228	=228	=228	=228	=228
0C	0G]	0G	0e	[0gl	0c	2dd]	1.g
.	.	.	.	.	.	4cc	.
.	.	.	.	.	.	4b	.
.	.	.	.	.	.	1cc	.
.	.	.	.	.	.	.	2a
=229	=229	=229	=229	=229	=229	=229	=229
[0GGl	[0Dl	[0Gl	0d	0g_	[0Bl	[0ddl	[0bl
=230	=230	=230	=230	=230	=230	=230	=230
0GG]	0D]	0G]	0dl	0g]	0B]	0dd]	0b]
==	==	==	==	==	==	==	==
*-	*-	*-	*-	*-	*-	*-	*-
!!!system-decoration: [(s1,s2,s3,s4,s5,s6,s7,s8)]
!!!RDF**kern: i = editorial accidental
!!!RDF**kern: l = terminal long
!!!ENC: Sam Bradley 
!!!END: 2026/1/27
!!!EED: Benjamin Ory
!!!EEV: 2026/01/28
!!!YEC: Copyright 2026 Benjamin Ory, All Rights Reserved
!!!ONB: Translated from MusicXML on 2026/01/28